assets/icons/file_icons/git.svg

<?xml version="1.0" encoding="UTF-8"?><svg id="Done" xmlns="http://www.w3.org/2000/svg" xmlns:xlink="http://www.w3.org/1999/xlink" viewBox="0 0 14 14"><defs><style>.cls-1{fill:#ff1c04;}.cls-2{fill:none;}</style><clipPath id="clippath"><path class="cls-2" d="m12.4461,115.2769l-4.998,2.499c-.2821.141-.6141.141-.8962,0l-4.998-2.499c-.3395-.1697-.5539-.5167-.5539-.8962v-5.7615c0-.3795.2144-.7265.5539-.8962l4.998-2.499c.2821-.141.6141-.141.8962,0l4.998,2.499c.3395.1697.5539.5167.5539.8962v5.7615c0,.3795-.2144.7265-.5539.8962Z"/></clipPath></defs><g id="Layer_17"><path id="path50" class="cls-1" d="m14.0435,6L8.0435,0h-2l-1,1,2,2,1.2256,1.1732,1.7744,1.8268h.9565l1,1v1l-1,1h-1l-1-1v-1l-2-2v4l1,1v1l-1,1h-1l-1-1v-1l1-1v-5l-2-2L0,6v2l6,6h2.0435l6-6"/></g></svg>

<svg xmlns="http://www.w3.org/2000/svg" viewBox="0 0 14 14"><path fill="#ff1c04" d="m14.044 6-6-6h-2l-1 1 2 2 1.225 1.173L10.043 6H11l1 1v1l-1 1h-1L9 8V7L7 5v4l1 1v1l-1 1H6l-1-1v-1l1-1V4L4 2 0 6v2l6 6h2.043l6-6"/></svg>
